Gawaita/scalable/mimetypes/x-office-presentation.svg

<?xml version="1.0" encoding="UTF-8"?>
<svg height="128px" viewBox="0 0 128 128" width="128px" xmlns="http://www.w3.org/2000/svg" xmlns:xlink="http://www.w3.org/1999/xlink">
    <linearGradient id="a" gradientUnits="userSpaceOnUse" x1="64" x2="64" y1="276" y2="284">
        <stop offset="0" stop-color="#414140"/>
        <stop offset="1" stop-color="#949390"/>
    </linearGradient>
    <linearGradient id="b" gradientUnits="userSpaceOnUse" x1="18.20984075" x2="109.79022225" y1="102" y2="102">
        <stop offset="0" stop-color="#c7c6c3"/>
        <stop offset="0.024221" stop-color="#e8e7e3"/>
        <stop offset="0.0686115" stop-color="#cbcac7"/>
        <stop offset="0.916655" stop-color="#cbcac7"/>
        <stop offset="0.960246" stop-color="#eae8e4"/>
        <stop offset="1" stop-color="#acaba8"/>
    </linearGradient>
    <linearGradient id="c" gradientTransform="matrix(0.2875 0 0 0.27027 -331.600006 -696.756775)" gradientUnits="userSpaceOnUse" x1="1376" x2="1376" y1="2692" y2="2932">
        <stop offset="0" stop-color="#f6f5f4"/>
        <stop offset="1" stop-color="#ffffff"/>
    </linearGradient>
    <linearGradient id="d" gradientUnits="userSpaceOnUse" x1="82.25" x2="82.25" y1="12" y2="26">
        <stop offset="0" stop-color="#deddda"/>
        <stop offset="1" stop-color="#9a9996"/>
    </linearGradient>
    <path d="m 83 286 l -14 -14 m -24 14 l 14 -14" fill="none" stroke="url(#a)" stroke-linecap="round" stroke-width="6" transform="matrix(1 0 0 1 0 -172)"/>
    <path d="m 24 24 h 80 c 3.3125 0 6 2.6875 6 6 v 68 c 0 3.3125 -2.6875 6 -6 6 h -80 c -3.3125 0 -6 -2.6875 -6 -6 v -68 c 0 -3.3125 2.6875 -6 6 -6 z m 0 0" fill="url(#b)"/>
    <path d="m 24 20 h 80 c 3.3125 0 6 2.6875 6 6 v 68 c 0 3.3125 -2.6875 6 -6 6 h -80 c -3.3125 0 -6 -2.6875 -6 -6 v -68 c 0 -3.3125 2.6875 -6 6 -6 z m 0 0" fill="url(#c)"/>
    <path d="m 20 12 h 88 c 4.417969 0 8 3.582031 8 8 s -3.582031 8 -8 8 h -88 c -4.417969 0 -8 -3.582031 -8 -8 s 3.582031 -8 8 -8 z m 0 0" fill="url(#d)"/>
    <path d="m 69.88671875 69.99609375 c -0.6484375 5.8046875 -4.08203125 10.9453125 -9.19921875 13.765625 c -0.96484375 0.53125 -2.625 1.21875 -3.6875 1.52734375 c -5.609375 1.625 -11.67578125 0.41796875 -16.234375 -3.23046875 c -0.86328125 -0.69140625 -2.1328125 -1.9609375 -2.82421875 -2.82421875 c -3.6484375 -4.55859375 -4.85546875 -10.625 -3.23046875 -16.234375 c 0.30859375 -1.0625 0.99609375 -2.72265625 1.52734375 -3.6875 c 2.8203125 -5.1171875 7.9609375 -8.55078125 13.765625 -9.19921875 c 1.09765625 -0.12109375 1.99609375 0.78515625 1.99609375 1.890625 v 13.99609375 c 0 1.10546875 0.89453125 2 2 2 h 13.99609375 c 1.10546875 0 2.01171875 0.8984375 1.890625 1.99609375 z m 0 0" fill="#1a5fb4" stroke="#204a87" stroke-width="0.0018155"/>
    <path d="m 57.99609375 46.11328125 c 8.34375 0.921875 14.96875 7.546875 15.890625 15.890625 c 0.12109375 1.09765625 -0.78515625 1.99609375 -1.890625 1.99609375 h -13.99609375 c -1.10546875 0 -2 -0.89453125 -2 -2 v -13.99609375 c 0 -1.10546875 0.8984375 -2.01171875 1.99609375 -1.890625 z m 0 0" fill="#26a269" stroke="#204a87" stroke-width="0.0018155"/>
    <path d="m 84 80 h 10 c 1.105469 0 2 0.894531 2 2 s -0.894531 2 -2 2 h -10 c -1.105469 0 -2 -0.894531 -2 -2 s 0.894531 -2 2 -2 z m 0 -10 h 10 c 1.105469 0 2 0.894531 2 2 s -0.894531 2 -2 2 h -10 c -1.105469 0 -2 -0.894531 -2 -2 s 0.894531 -2 2 -2 z m 0 -10 h 10 c 1.105469 0 2 0.894531 2 2 s -0.894531 2 -2 2 h -10 c -1.105469 0 -2 -0.894531 -2 -2 s 0.894531 -2 2 -2 z m 0 -10 h 10 c 1.105469 0 2 0.894531 2 2 s -0.894531 2 -2 2 h -10 c -1.105469 0 -2 -0.894531 -2 -2 s 0.894531 -2 2 -2 z m 0 -10 h 10 c 1.105469 0 2 0.894531 2 2 s -0.894531 2 -2 2 h -10 c -1.105469 0 -2 -0.894531 -2 -2 s 0.894531 -2 2 -2 z m 0 0" fill="#d5d3cf"/>
    <path d="m 69.88671875 67.99609375 c -0.6484375 5.8046875 -4.08203125 10.9453125 -9.19921875 13.765625 c -0.96484375 0.53125 -2.625 1.21875 -3.6875 1.52734375 c -5.609375 1.625 -11.67578125 0.41796875 -16.234375 -3.23046875 c -0.86328125 -0.69140625 -2.1328125 -1.9609375 -2.82421875 -2.82421875 c -3.6484375 -4.55859375 -4.85546875 -10.625 -3.23046875 -16.234375 c 0.30859375 -1.0625 0.99609375 -2.72265625 1.52734375 -3.6875 c 2.8203125 -5.1171875 7.9609375 -8.55078125 13.765625 -9.19921875 c 1.09765625 -0.12109375 1.99609375 0.78515625 1.99609375 1.890625 v 13.99609375 c 0 1.10546875 0.89453125 2 2 2 h 13.99609375 c 1.10546875 0 2.01171875 0.8984375 1.890625 1.99609375 z m 0 0" fill="#4a86cf" stroke="#204a87" stroke-width="0.0018155"/>
    <path d="m 57.99609375 44.11328125 c 8.34375 0.921875 14.96875 7.546875 15.890625 15.890625 c 0.12109375 1.09765625 -0.78515625 1.99609375 -1.890625 1.99609375 h -13.99609375 c -1.10546875 0 -2 -0.89453125 -2 -2 v -13.99609375 c 0 -1.10546875 0.8984375 -2.01171875 1.99609375 -1.890625 z m 0 0" fill="#50db81" stroke="#204a87" stroke-width="0.0018155"/>
    <path d="m 18 18 h 92" fill="none" stroke="#deddda" stroke-linecap="round" stroke-width="4"/>
</svg>

<svg width="128" height="128" viewBox="0 0 128 128" fill="none" xmlns="http://www.w3.org/2000/svg">
<path d="M83 114L69 100M45 114L59 100" stroke="url(#paint0_linear_1_2636)" stroke-width="6" stroke-linecap="round"/>
<path d="M24 24H104C107.312 24 110 26.6875 110 30V98C110 101.312 107.312 104 104 104H24C20.6875 104 18 101.312 18 98V30C18 26.6875 20.6875 24 24 24Z" fill="url(#paint1_linear_1_2636)"/>
<path d="M24 20H104C107.312 20 110 22.6875 110 26V94C110 97.3125 107.312 100 104 100H24C20.6875 100 18 97.3125 18 94V26C18 22.6875 20.6875 20 24 20Z" fill="url(#paint2_linear_1_2636)"/>
<path d="M20 12H108C112.418 12 116 15.582 116 20C116 24.418 112.418 28 108 28H20C15.582 28 12 24.418 12 20C12 15.582 15.582 12 20 12Z" fill="url(#paint3_linear_1_2636)"/>
<path d="M69.8867 69.9961C69.2382 75.8008 65.8046 80.9414 60.6875 83.7617C59.7226 84.293 58.0625 84.9805 57 85.2891C51.3906 86.9141 45.3242 85.707 40.7656 82.0586C39.9023 81.3672 38.6328 80.0977 37.9414 79.2344C34.2929 74.6758 33.0859 68.6094 34.7109 63C35.0195 61.9375 35.707 60.2774 36.2382 59.3125C39.0586 54.1953 44.1992 50.7617 50.0039 50.1133C51.1015 49.9922 52 50.8985 52 52.0039V66C52 67.1055 52.8945 68 54 68H67.9961C69.1015 68 70.0078 68.8985 69.8867 69.9961Z" fill="#1A5FB4" stroke="#204A87" stroke-width="0.0018155"/>
<path d="M57.9961 46.1133C66.3398 47.0352 72.9648 53.6602 73.8867 62.0039C74.0078 63.1016 73.1016 64 71.9961 64H58C56.8945 64 56 63.1055 56 62V48.0039C56 46.8985 56.8984 45.9922 57.9961 46.1133Z" fill="#26A269" stroke="#204A87" stroke-width="0.0018155"/>
<path d="M84 80H94C95.1055 80 96 80.8945 96 82C96 83.1055 95.1055 84 94 84H84C82.8945 84 82 83.1055 82 82C82 80.8945 82.8945 80 84 80ZM84 70H94C95.1055 70 96 70.8945 96 72C96 73.1055 95.1055 74 94 74H84C82.8945 74 82 73.1055 82 72C82 70.8945 82.8945 70 84 70ZM84 60H94C95.1055 60 96 60.8945 96 62C96 63.1055 95.1055 64 94 64H84C82.8945 64 82 63.1055 82 62C82 60.8945 82.8945 60 84 60ZM84 50H94C95.1055 50 96 50.8945 96 52C96 53.1055 95.1055 54 94 54H84C82.8945 54 82 53.1055 82 52C82 50.8945 82.8945 50 84 50ZM84 40H94C95.1055 40 96 40.8945 96 42C96 43.1055 95.1055 44 94 44H84C82.8945 44 82 43.1055 82 42C82 40.8945 82.8945 40 84 40Z" fill="#D5D3CF"/>
<path d="M69.8867 67.9961C69.2382 73.8008 65.8046 78.9414 60.6875 81.7617C59.7226 82.293 58.0625 82.9805 57 83.2891C51.3906 84.9141 45.3242 83.707 40.7656 80.0586C39.9023 79.3672 38.6328 78.0977 37.9414 77.2344C34.2929 72.6758 33.0859 66.6094 34.7109 61C35.0195 59.9375 35.707 58.2774 36.2382 57.3125C39.0586 52.1953 44.1992 48.7617 50.0039 48.1133C51.1015 47.9922 52 48.8985 52 50.0039V64C52 65.1055 52.8945 66 54 66H67.9961C69.1015 66 70.0078 66.8985 69.8867 67.9961Z" fill="#78A6DE" stroke="#204A87" stroke-width="0.0018155"/>
<path d="M57.9961 44.1133C66.3398 45.0352 72.9648 51.6602 73.8867 60.0039C74.0078 61.1016 73.1016 62 71.9961 62H58C56.8945 62 56 61.1055 56 60V46.0039C56 44.8985 56.8984 43.9922 57.9961 44.1133Z" fill="#13D457" stroke="#204A87" stroke-width="0.0018155"/>
<path d="M18 18H110" stroke="#DEDDDA" stroke-width="4" stroke-linecap="round"/>
<defs>
<linearGradient id="paint0_linear_1_2636" x1="64" y1="104" x2="64" y2="112" gradientUnits="userSpaceOnUse">
<stop stop-color="#414140"/>
<stop offset="1" stop-color="#949390"/>
</linearGradient>
<linearGradient id="paint1_linear_1_2636" x1="18.2098" y1="102" x2="109.79" y2="102" gradientUnits="userSpaceOnUse">
<stop stop-color="#C7C6C3"/>
<stop offset="0.024221" stop-color="#E8E7E3"/>
<stop offset="0.0686115" stop-color="#CBCAC7"/>
<stop offset="0.916655" stop-color="#CBCAC7"/>
<stop offset="0.960246" stop-color="#EAE8E4"/>
<stop offset="1" stop-color="#ACABA8"/>
</linearGradient>
<linearGradient id="paint2_linear_1_2636" x1="64" y1="30.8101" x2="64" y2="95.6749" gradientUnits="userSpaceOnUse">
<stop stop-color="#F6F5F4"/>
<stop offset="1" stop-color="white"/>
</linearGradient>
<linearGradient id="paint3_linear_1_2636" x1="82.25" y1="12" x2="82.25" y2="26" gradientUnits="userSpaceOnUse">
<stop stop-color="#DEDDDA"/>
<stop offset="1" stop-color="#9A9996"/>
</linearGradient>
</defs>
</svg>
